static/assets/images/icons/insurance.svg

<svg width="256" height="256" viewBox="0 0 256 256" fill="none" xmlns="http://www.w3.org/2000/svg">
<path fill-rule="evenodd" clip-rule="evenodd" d="M140.518 28.4676L217.067 59.3168C219.948 60.8586 222.351 63.1302 224.025 65.8935C225.698 68.6568 226.581 71.8099 226.581 75.0219L226.581 107.423C226.581 162.374 192.842 211.992 140.917 233.405C132.526 236.865 123.055 236.865 114.664 233.405C62.7386 211.992 29 162.374 29 107.423V75.0219C28.9992 71.8099 29.8821 68.6568 31.5559 65.8935C33.2297 63.1302 35.6328 60.8586 38.5131 59.3168L115.063 28.4676C123.227 25.1775 132.354 25.1775 140.518 28.4676ZM120.599 116.051V184.807C120.599 188.255 123.402 191.049 126.86 191.049C130.318 191.049 133.122 188.255 133.122 184.807V115.716L196.249 89.3673C199.44 88.0354 200.945 84.3779 199.612 81.1957C198.277 78.01 194.603 76.5076 191.408 77.8409L126.444 104.956L62.7081 77.504C59.5288 76.1347 55.838 77.5956 54.467 80.7661C53.0975 83.933 54.5609 87.6071 57.7365 88.9749L120.599 116.051Z" fill="black"/>
</svg>

<svg xmlns="http://www.w3.org/2000/svg" fill="none" viewBox="0 0 256 256"><path fill="#000" fill-rule="evenodd" d="m140.518 28.468 76.549 30.849a18.1 18.1 0 0 1 6.958 6.577 17.6 17.6 0 0 1 2.556 9.128v32.401c0 54.951-33.739 104.569-85.664 125.982a34.5 34.5 0 0 1-26.253 0C62.739 211.992 29 162.374 29 107.423V75.022c0-3.212.882-6.365 2.556-9.129a18.1 18.1 0 0 1 6.957-6.576l76.55-30.85a34.06 34.06 0 0 1 25.455 0m-19.919 87.583v68.756c0 3.448 2.803 6.242 6.261 6.242s6.262-2.794 6.262-6.242v-69.091l63.127-26.349c3.191-1.332 4.696-4.99 3.363-8.171-1.335-3.186-5.009-4.688-8.204-3.355l-64.964 27.115-63.736-27.452c-3.18-1.37-6.87.092-8.241 3.262a6.24 6.24 0 0 0 3.27 8.209z" clip-rule="evenodd"/></svg>
